figures-source/3.33.svg

<svg xmlns:rdf="http://www.w3.org/1999/02/22-rdf-syntax-ns#" xmlns="http://www.w3.org/2000/svg" height="229.26" width="447.54" version="1.1" xmlns:cc="http://creativecommons.org/ns#" xmlns:dc="http://purl.org/dc/elements/1.1/">
 <metadata>
  <rdf:RDF>
   <cc:Work rdf:about="">
    <dc:format>image/svg+xml</dc:format>
    <dc:type rdf:resource="http://purl.org/dc/dcmitype/StillImage"/>
    <dc:title/>
   </cc:Work>
  </rdf:RDF>
 </metadata>
 <defs>
  <marker id="Arrow1Lend" refY="0" refX="0" orient="auto">
   <path style="marker-start:none;" d="m-10,0,0-2,10,2-10,2z" fill-rule="evenodd" stroke="#000" stroke-width="1px"/>
  </marker>
 </defs>
 <g transform="translate(-29.5,-106)">
  <rect rx="8.0854" ry="18" height="36" width="48.158" stroke="#616161" y="171.37" x="31" stroke-width="3px" fill="#d3f5d6"/>
  <text font-family="Helvetica" font-size="12px" stroke="#000000" y="171.37" x="31" stroke-width="0px" fill="#000000">
   <tspan font-size="12px" fill="#000000" style="text-anchor:middle;text-align:center;" stroke="#000000" y="195.37" x="55.078751" font-family="&apos;LucidaGrande" text-align="center">C1</tspan>
  </text>
  <rect rx="8.0854" ry="18" height="36" width="48.158" stroke="#616161" y="171.37" x="108.32" stroke-width="3px" fill="#d3f5d6"/>
  <text font-family="Helvetica" font-size="12px" stroke="#000000" y="171.37" x="108.315" stroke-width="0px" fill="#000000">
   <tspan font-size="12px" fill="#000000" style="text-anchor:middle;text-align:center;" stroke="#000000" y="195.37" x="132.39375" font-family="&apos;LucidaGrande" text-align="center">C2</tspan>
  </text>
  <path style="marker-start:none;marker-end:url(#Arrow1Lend);" fill="none" d="m106.82,189.37-26.158,0" stroke="#000"/>
  <rect rx="8.0854" ry="18" height="36" width="48.158" stroke="#616161" y="171.37" x="185.95" stroke-width="3px" fill="#d3f5d6"/>
  <text font-family="Helvetica" font-size="12px" stroke="#000000" y="171.37" x="185.94501" stroke-width="0px" fill="#000000">
   <tspan font-size="12px" fill="#000000" style="text-anchor:middle;text-align:center;" stroke="#000000" y="195.37" x="210.02374" font-family="&apos;LucidaGrande" text-align="center">C5</tspan>
  </text>
  <path style="marker-start:none;marker-end:url(#Arrow1Lend);" fill="none" d="m184.44,189.37-26.472,0" stroke="#000"/>
  <rect height="36" width="70.022" stroke="#616161" y="298.26" x="329.01" stroke-width="2px" fill="#EEE"/>
  <text font-family="Luxi Sans" font-size="10px" stroke="#cccccc" y="298.26001" x="329.013" stroke-width="0px" fill="#cccccc">
   <tspan font-size="10px" fill="#777777" style="text-anchor:middle;text-align:center;" stroke="#777777" y="321.26001" x="364.02411" font-family="&apos;LucidaGrande" text-align="center">server</tspan>
  </text>
  <path style="marker-start:none;marker-end:url(#Arrow1Lend);" fill="none" d="m364.02,297.26,0-20.76" stroke="#000"/>
  <rect rx="8.0854" ry="18" height="36" width="48.158" stroke="#616161" y="239" x="185.95" stroke-width="3px" fill="#d3f5d6"/>
  <text font-family="Helvetica" font-size="12px" stroke="#000000" y="239" x="185.94501" stroke-width="0px" fill="#000000">
   <tspan font-size="12px" fill="#000000" style="text-anchor:middle;text-align:center;" stroke="#000000" y="263" x="210.02374" font-family="&apos;LucidaGrande" text-align="center">C3</tspan>
  </text>
  <path style="marker-start:none;marker-end:url(#Arrow1Lend);" fill="none" d="M189.52,239.14,152.9,207.23" stroke="#000"/>
  <rect height="36" width="70.022" stroke="#616161" y="235.74" x="406.01" stroke-width="2px" fill="#EEE"/>
  <text font-family="Luxi Sans" font-size="10px" stroke="#cccccc" y="235.74001" x="406.013" stroke-width="0px" fill="#cccccc">
   <tspan font-size="10px" fill="#777777" style="text-anchor:middle;text-align:center;" stroke="#777777" y="258.73999" x="441.02411" font-family="&apos;LucidaGrande" text-align="center">master</tspan>
  </text>
  <rect rx="8.0854" ry="18" height="36" width="48.158" stroke="#616161" y="239" x="262.95" stroke-width="3px" fill="#d3f5d6"/>
  <text font-family="Helvetica" font-size="12px" stroke="#000000" y="239" x="262.94501" stroke-width="0px" fill="#000000">
   <tspan font-size="12px" fill="#000000" style="text-anchor:middle;text-align:center;" stroke="#000000" y="263" x="287.02374" font-family="&apos;LucidaGrande" text-align="center">C4</tspan>
  </text>
  <path style="marker-start:none;marker-end:url(#Arrow1Lend);" fill="none" d="m261.44,257-25.842,0" stroke="#000"/>
  <rect rx="8.0854" ry="18" height="36" width="48.158" stroke="#616161" y="171.37" x="262.95" stroke-width="3px" fill="#d3f5d6"/>
  <text font-family="Helvetica" font-size="12px" stroke="#000000" y="171.37" x="262.94501" stroke-width="0px" fill="#000000">
   <tspan font-size="12px" fill="#000000" style="text-anchor:middle;text-align:center;" stroke="#000000" y="195.37" x="287.02374" font-family="&apos;LucidaGrande" text-align="center">C6</tspan>
  </text>
  <path style="marker-start:none;marker-end:url(#Arrow1Lend);" fill="none" d="m261.44,189.37-25.842,0" stroke="#000"/>
  <rect rx="8.0854" ry="18" height="36" width="48.158" stroke="#616161" y="239" x="339.95" stroke-width="3px" fill="#d3f5d6"/>
  <text font-family="Helvetica" font-size="12px" stroke="#000000" y="239" x="339.94501" stroke-width="0px" fill="#000000">
   <tspan font-size="12px" fill="#000000" style="text-anchor:middle;text-align:center;" stroke="#000000" y="263" x="364.02374" font-family="&apos;LucidaGrande" text-align="center">C10</tspan>
  </text>
  <path style="marker-start:none;marker-end:url(#Arrow1Lend);" fill="none" d="m338.44,257-25.843,0" stroke="#000"/>
  <rect rx="8.0854" ry="18" height="36" width="48.158" stroke="#616161" y="171.37" x="339.95" stroke-width="3px" fill="#d3f5d6"/>
  <text font-family="Helvetica" font-size="12px" stroke="#000000" y="171.37" x="339.94501" stroke-width="0px" fill="#000000">
   <tspan font-size="12px" fill="#000000" style="text-anchor:middle;text-align:center;" stroke="#000000" y="195.37" x="364.02374" font-family="&apos;LucidaGrande" text-align="center">C8&apos;</tspan>
  </text>
  <path style="marker-start:none;marker-end:url(#Arrow1Lend);" fill="none" d="m338.44,189.37-25.843,0" stroke="#000"/>
  <rect rx="8.0854" ry="18" height="36" width="48.158" stroke="#616161" y="171.37" x="416.95" stroke-width="3px" fill="#d3f5d6"/>
  <text font-family="Helvetica" font-size="12px" stroke="#000000" y="171.37" x="416.94501" stroke-width="0px" fill="#000000">
   <tspan font-size="12px" fill="#000000" style="text-anchor:middle;text-align:center;" stroke="#000000" y="195.37" x="441.02374" font-family="&apos;LucidaGrande" text-align="center">C9&apos;</tspan>
  </text>
  <path style="marker-start:none;marker-end:url(#Arrow1Lend);" fill="none" d="m415.44,189.37-25.843,0" stroke="#000"/>
  <rect height="36" width="70.022" stroke="#616161" y="107" x="406.01" stroke-width="2px" fill="#EEE"/>
  <text font-family="Luxi Sans" font-size="10px" stroke="#cccccc" y="107" x="406.013" stroke-width="0px" fill="#cccccc">
   <tspan font-size="10px" fill="#777777" style="text-anchor:middle;text-align:center;" stroke="#777777" y="130" x="441.02411" font-family="&apos;LucidaGrande" text-align="center">client</tspan>
  </text>
  <path style="marker-start:none;marker-end:url(#Arrow1Lend);" fill="none" d="m441.02,144,0,25.87" stroke="#000"/>
  <path style="marker-start:none;marker-end:url(#Arrow1Lend);" fill="none" d="m441.02,234.74,0-25.87" stroke="#000"/>
 </g>
</svg>

<?xml version="1.0" encoding="utf-8"?>
<svg xmlns="http://www.w3.org/2000/svg" xmlns:xlink="http://www.w3.org/1999/xlink">
	<defs>
		<marker id="Arrow1Lend" orient="auto" refX="0.0" refY="0.0" style="overflow:visible;">
			
              
			<path d="M -10,0.0 L -10.0,-2.0 L 0.0,0.0 L -10.0,2.0 z " id="path3666" style="fill-rule:evenodd;stroke:#000000;stroke-width:1.0px;marker-start:none;"/>
			
            
		</marker>
	</defs>
	<g style="stroke:#000000;fill:#fff">
		<rect height="36.0" id="1299" rx="8.08543259671" ry="18.0" style="stroke:#616161;stroke-width:3.000000px;fill:#d3f5d6" width="48.1575" x="31.0" y="171.37"/>
		<text id="1299_text" style="fill:#000000;stroke:#000000;stroke-width:0px;font-family: Helvetica;font-size:12px" x="31.0" y="171.37">
			<tspan fill="#000000" font-family="LucidaGrande;" font-size="12.0px" id="1299_line1" stroke="#000000" text-align="center" text-anchor="middle" x="55.07875" y="195.37">
				C1
			</tspan>
		</text>
		<rect height="36.0" id="1304" rx="8.08543259671" ry="18.0" style="stroke:#616161;stroke-width:3.000000px;fill:#d3f5d6" width="48.1575" x="108.315" y="171.37"/>
		<text id="1304_text" style="fill:#000000;stroke:#000000;stroke-width:0px;font-family: Helvetica;font-size:12px" x="108.315" y="171.37">
			<tspan fill="#000000" font-family="LucidaGrande;" font-size="12.0px" id="1304_line1" stroke="#000000" text-align="center" text-anchor="middle" x="132.39375" y="195.37">
				C2
			</tspan>
		</text>
		<path d="M 106.815,189.37 L 80.6575,189.37" id="1306" style="marker-start:none;stroke:#000000;marker-end:url(#Arrow1Lend);fill:none"/>
		<rect height="36.0" id="1307" rx="8.08543259671" ry="18.0" style="stroke:#616161;stroke-width:3.000000px;fill:#d3f5d6" width="48.1575" x="185.945" y="171.37"/>
		<text id="1307_text" style="fill:#000000;stroke:#000000;stroke-width:0px;font-family: Helvetica;font-size:12px" x="185.945" y="171.37">
			<tspan fill="#000000" font-family="LucidaGrande;" font-size="12.0px" id="1307_line1" stroke="#000000" text-align="center" text-anchor="middle" x="210.02375" y="195.37">
				C5
			</tspan>
		</text>
		<path d="M 184.445,189.37 L 157.973,189.37" id="1308" style="marker-start:none;stroke:#000000;marker-end:url(#Arrow1Lend);fill:none"/>
		<rect height="36.0" id="1316" style="stroke:#616161;stroke-width:2.000000px;fill:#eeeeee" width="70.0222" x="329.013" y="298.26"/>
		<text id="1316_text" style="fill:#cccccc;stroke:#cccccc;stroke-width:0px;font-family: Luxi Sans;font-size:10px" x="329.013" y="298.26">
			<tspan fill="#777777" font-family="LucidaGrande;" font-size="10.0px" id="1316_line1" stroke="#777777" text-align="center" text-anchor="middle" x="364.0241" y="321.26">
				server
			</tspan>
		</text>
		<path d="M 364.024,297.26 L 364.024,276.5" id="1317" style="marker-start:none;stroke:#000000;marker-end:url(#Arrow1Lend);fill:none"/>
		<rect height="36.0" id="1324" rx="8.08543259671" ry="18.0" style="stroke:#616161;stroke-width:3.000000px;fill:#d3f5d6" width="48.1575" x="185.945" y="239.0"/>
		<text id="1324_text" style="fill:#000000;stroke:#000000;stroke-width:0px;font-family: Helvetica;font-size:12px" x="185.945" y="239.0">
			<tspan fill="#000000" font-family="LucidaGrande;" font-size="12.0px" id="1324_line1" stroke="#000000" text-align="center" text-anchor="middle" x="210.02375" y="263.0">
				C3
			</tspan>
		</text>
		<path d="M 189.521,239.138 L 152.896,207.232" id="1325" style="marker-start:none;stroke:#000000;marker-end:url(#Arrow1Lend);fill:none"/>
		<rect height="36.0" id="1330" style="stroke:#616161;stroke-width:2.000000px;fill:#eeeeee" width="70.0222" x="406.013" y="235.74"/>
		<text id="1330_text" style="fill:#cccccc;stroke:#cccccc;stroke-width:0px;font-family: Luxi Sans;font-size:10px" x="406.013" y="235.74">
			<tspan fill="#777777" font-family="LucidaGrande;" font-size="10.0px" id="1330_line1" stroke="#777777" text-align="center" text-anchor="middle" x="441.0241" y="258.74">
				master
			</tspan>
		</text>
		<rect height="36.0" id="1332" rx="8.08543259671" ry="18.0" style="stroke:#616161;stroke-width:3.000000px;fill:#d3f5d6" width="48.1575" x="262.945" y="239.0"/>
		<text id="1332_text" style="fill:#000000;stroke:#000000;stroke-width:0px;font-family: Helvetica;font-size:12px" x="262.945" y="239.0">
			<tspan fill="#000000" font-family="LucidaGrande;" font-size="12.0px" id="1332_line1" stroke="#000000" text-align="center" text-anchor="middle" x="287.02375" y="263.0">
				C4
			</tspan>
		</text>
		<path d="M 261.445,257.0 L 235.603,257.0" id="1333" style="marker-start:none;stroke:#000000;marker-end:url(#Arrow1Lend);fill:none"/>
		<rect height="36.0" id="1341" rx="8.08543259671" ry="18.0" style="stroke:#616161;stroke-width:3.000000px;fill:#d3f5d6" width="48.1575" x="262.945" y="171.37"/>
		<text id="1341_text" style="fill:#000000;stroke:#000000;stroke-width:0px;font-family: Helvetica;font-size:12px" x="262.945" y="171.37">
			<tspan fill="#000000" font-family="LucidaGrande;" font-size="12.0px" id="1341_line1" stroke="#000000" text-align="center" text-anchor="middle" x="287.02375" y="195.37">
				C6
			</tspan>
		</text>
		<path d="M 261.445,189.37 L 235.603,189.37" id="1343" style="marker-start:none;stroke:#000000;marker-end:url(#Arrow1Lend);fill:none"/>
		<rect height="36.0" id="1347" rx="8.08543259671" ry="18.0" style="stroke:#616161;stroke-width:3.000000px;fill:#d3f5d6" width="48.1575" x="339.945" y="239.0"/>
		<text id="1347_text" style="fill:#000000;stroke:#000000;stroke-width:0px;font-family: Helvetica;font-size:12px" x="339.945" y="239.0">
			<tspan fill="#000000" font-family="LucidaGrande;" font-size="12.0px" id="1347_line1" stroke="#000000" text-align="center" text-anchor="middle" x="364.02375" y="263.0">
				C10
			</tspan>
		</text>
		<path d="M 338.445,257.0 L 312.602,257.0" id="1348" style="marker-start:none;stroke:#000000;marker-end:url(#Arrow1Lend);fill:none"/>
		<rect height="36.0" id="1354" rx="8.08543259671" ry="18.0" style="stroke:#616161;stroke-width:3.000000px;fill:#d3f5d6" width="48.1575" x="339.945" y="171.37"/>
		<text id="1354_text" style="fill:#000000;stroke:#000000;stroke-width:0px;font-family: Helvetica;font-size:12px" x="339.945" y="171.37">
			<tspan fill="#000000" font-family="LucidaGrande;" font-size="12.0px" id="1354_line1" stroke="#000000" text-align="center" text-anchor="middle" x="364.02375" y="195.37">
				C8'
			</tspan>
		</text>
		<path d="M 338.445,189.37 L 312.602,189.37" id="1355" style="marker-start:none;stroke:#000000;marker-end:url(#Arrow1Lend);fill:none"/>
		<rect height="36.0" id="1356" rx="8.08543259671" ry="18.0" style="stroke:#616161;stroke-width:3.000000px;fill:#d3f5d6" width="48.1575" x="416.945" y="171.37"/>
		<text id="1356_text" style="fill:#000000;stroke:#000000;stroke-width:0px;font-family: Helvetica;font-size:12px" x="416.945" y="171.37">
			<tspan fill="#000000" font-family="LucidaGrande;" font-size="12.0px" id="1356_line1" stroke="#000000" text-align="center" text-anchor="middle" x="441.02375" y="195.37">
				C9'
			</tspan>
		</text>
		<path d="M 415.445,189.37 L 389.602,189.37" id="1357" style="marker-start:none;stroke:#000000;marker-end:url(#Arrow1Lend);fill:none"/>
		<rect height="36.0" id="1361" style="stroke:#616161;stroke-width:2.000000px;fill:#eeeeee" width="70.0222" x="406.013" y="107.0"/>
		<text id="1361_text" style="fill:#cccccc;stroke:#cccccc;stroke-width:0px;font-family: Luxi Sans;font-size:10px" x="406.013" y="107.0">
			<tspan fill="#777777" font-family="LucidaGrande;" font-size="10.0px" id="1361_line1" stroke="#777777" text-align="center" text-anchor="middle" x="441.0241" y="130.0">
				client
			</tspan>
		</text>
		<path d="M 441.024,144.0 L 441.024,169.87" id="1362" style="marker-start:none;stroke:#000000;marker-end:url(#Arrow1Lend);fill:none"/>
		<path d="M 441.024,234.74 L 441.024,208.87" id="1363" style="marker-start:none;stroke:#000000;marker-end:url(#Arrow1Lend);fill:none"/>
	</g>
</svg>
